X: 5515
T: Burlesque, The
R: jig
M: 6/8
K: Dmajor
|:f3 ecA|d3 AFD|EFG ABc|def ecA|f3 ecA|d3 AFD|EFG Agf|edc d3:|
|:ABA AFA|BdB AFA|Bcd efg|Bgf ecA|f3 ecA|d3 AFD|EFG Agf|edc d3:|

